svg/color/lic.svg

<?xml version="1.0" encoding="UTF-8" ?>
<!DOCTYPE svg PUBLIC "-//W3C//DTD SVG 1.1//EN" "http://www.w3.org/Graphics/SVG/1.1/DTD/svg11.dtd">
<svg width="250pt" height="250pt" viewBox="0 0 250 250" version="1.1" xmlns="http://www.w3.org/2000/svg">
<g id="#ffffffff">
<path fill="#ffffff" opacity="1.00" d=" M 0.00 0.00 L 250.00 0.00 L 250.00 250.00 L 0.00 250.00 L 0.00 0.00 M 109.58 9.89 C 102.98 10.70 96.51 12.23 90.18 14.25 C 54.97 25.04 25.94 53.77 14.69 88.82 C 6.87 112.40 6.96 138.48 14.90 162.02 C 23.94 189.48 43.84 213.08 69.15 226.99 C 101.05 244.79 141.49 246.09 174.44 230.31 C 214.04 212.09 241.91 169.87 240.91 126.00 C 242.31 87.93 222.05 50.54 190.77 29.24 C 167.35 13.00 137.78 6.00 109.58 9.89 Z" />
<path fill="#ffffff" opacity="1.00" d=" M 128.82 51.32 C 134.83 51.17 140.84 51.20 146.85 51.27 C 146.66 55.89 145.62 60.40 145.25 65.00 C 144.93 67.41 144.85 70.14 142.88 71.88 C 134.64 80.27 126.95 89.17 118.68 97.54 C 112.28 97.51 105.18 96.78 99.67 100.73 C 97.14 102.63 97.28 105.85 97.46 108.68 C 99.68 110.46 102.32 111.54 104.93 112.59 C 98.81 118.78 93.21 125.51 87.04 131.62 C 80.93 130.76 75.07 127.67 71.20 122.82 C 65.35 114.83 64.56 103.61 68.81 94.73 C 72.80 84.44 81.90 76.37 92.59 73.62 C 103.20 70.03 114.53 71.44 125.52 71.18 C 127.52 64.76 128.11 57.98 128.82 51.32 Z" />
<path fill="#ffffff" opacity="1.00" d=" M 166.64 70.61 C 176.86 70.63 187.07 70.60 197.29 70.63 C 189.59 79.94 180.98 88.45 173.08 97.60 C 166.41 97.70 159.73 97.74 153.07 97.55 C 157.51 88.53 162.13 79.60 166.64 70.61 Z" />
<path fill="#ffffff" opacity="1.00" d=" M 144.08 114.39 C 146.77 110.02 152.42 112.20 156.64 111.72 C 156.48 112.08 156.16 112.81 156.00 113.18 C 152.01 113.44 148.06 114.00 144.08 114.39 Z" />
<path fill="#ffffff" opacity="1.00" d=" M 166.64 113.16 C 175.28 114.44 183.84 118.79 188.52 126.40 C 193.23 134.81 191.89 145.64 186.51 153.42 C 179.11 164.84 166.21 171.45 153.09 173.79 C 145.40 175.44 137.47 174.09 129.73 175.15 C 128.69 182.99 127.62 190.82 126.24 198.61 C 120.28 198.57 114.32 198.69 108.36 198.57 C 109.47 191.25 109.89 183.77 111.64 176.58 C 120.20 167.14 129.17 158.07 137.63 148.54 C 143.30 148.44 149.33 149.31 154.58 146.62 C 157.96 145.12 160.65 140.76 158.68 137.21 C 157.62 134.57 154.36 134.15 152.08 133.05 C 156.91 127.95 161.89 122.96 166.33 117.52 C 166.54 116.07 166.64 114.62 166.64 113.16 Z" />
<path fill="#ffffff" opacity="1.00" d=" M 76.28 149.29 C 78.61 147.02 82.07 147.84 85.00 147.70 C 90.66 147.94 96.44 147.07 101.99 148.56 C 97.52 157.21 93.64 166.26 88.62 174.58 C 76.68 174.85 64.70 174.77 52.75 174.61 C 60.68 166.25 68.34 157.64 76.28 149.29 Z" />
</g>
<g id="#000000ff">
<path fill="#000000" opacity="1.00" d=" M 109.58 9.89 C 137.78 6.00 167.35 13.00 190.77 29.24 C 222.05 50.54 242.31 87.93 240.91 126.00 C 241.91 169.87 214.04 212.09 174.44 230.31 C 141.49 246.09 101.05 244.79 69.15 226.99 C 43.84 213.08 23.94 189.48 14.90 162.02 C 6.96 138.48 6.87 112.40 14.69 88.82 C 25.94 53.77 54.97 25.04 90.18 14.25 C 96.51 12.23 102.98 10.70 109.58 9.89 M 155.59 63.58 C 134.00 87.18 111.66 110.08 90.34 133.90 C 98.90 133.44 107.12 130.59 115.67 130.02 C 102.29 156.34 88.98 182.72 76.00 209.22 C 78.79 206.95 81.07 204.15 83.52 201.53 C 109.00 174.34 134.23 146.91 159.67 119.68 C 160.86 118.38 161.96 117.00 163.00 115.57 C 154.56 116.64 146.33 118.92 137.87 119.81 C 148.39 98.18 159.51 76.83 170.20 55.28 C 172.50 50.47 175.32 45.91 177.19 40.90 C 169.50 47.98 162.94 56.17 155.59 63.58 M 128.82 51.32 C 128.11 57.98 127.52 64.76 125.52 71.18 C 114.53 71.44 103.20 70.03 92.59 73.62 C 81.90 76.37 72.80 84.44 68.81 94.73 C 64.56 103.61 65.35 114.83 71.20 122.82 C 75.07 127.67 80.93 130.76 87.04 131.62 C 93.21 125.51 98.81 118.78 104.93 112.59 C 102.32 111.54 99.68 110.46 97.46 108.68 C 97.28 105.85 97.14 102.63 99.67 100.73 C 105.18 96.78 112.28 97.51 118.68 97.54 C 126.95 89.17 134.64 80.27 142.88 71.88 C 144.85 70.14 144.93 67.41 145.25 65.00 C 145.62 60.40 146.66 55.89 146.85 51.27 C 140.84 51.20 134.83 51.17 128.82 51.32 M 166.64 70.61 C 162.13 79.60 157.51 88.53 153.07 97.55 C 159.73 97.74 166.41 97.70 173.08 97.60 C 180.98 88.45 189.59 79.94 197.29 70.63 C 187.07 70.60 176.86 70.63 166.64 70.61 M 144.08 114.39 C 148.06 114.00 152.01 113.44 156.00 113.18 C 156.16 112.81 156.48 112.08 156.64 111.72 C 152.42 112.20 146.77 110.02 144.08 114.39 M 166.64 113.16 C 166.64 114.62 166.54 116.07 166.33 117.52 C 161.89 122.96 156.91 127.95 152.08 133.05 C 154.36 134.15 157.62 134.57 158.68 137.21 C 160.65 140.76 157.96 145.12 154.58 146.62 C 149.33 149.31 143.30 148.44 137.63 148.54 C 129.17 158.07 120.20 167.14 111.64 176.58 C 109.89 183.77 109.47 191.25 108.36 198.57 C 114.32 198.69 120.28 198.57 126.24 198.61 C 127.62 190.82 128.69 182.99 129.73 175.15 C 137.47 174.09 145.40 175.44 153.09 173.79 C 166.21 171.45 179.11 164.84 186.51 153.42 C 191.89 145.64 193.23 134.81 188.52 126.40 C 183.84 118.79 175.28 114.44 166.64 113.16 M 76.28 149.29 C 68.34 157.64 60.68 166.25 52.75 174.61 C 64.70 174.77 76.68 174.85 88.62 174.58 C 93.64 166.26 97.52 157.21 101.99 148.56 C 96.44 147.07 90.66 147.94 85.00 147.70 C 82.07 147.84 78.61 147.02 76.28 149.29 Z" />
</g>
<g id="#f6cb00ff">
<path fill="#f6cb00" opacity="1.00" d=" M 155.59 63.58 C 162.94 56.17 169.50 47.98 177.19 40.90 C 175.32 45.91 172.50 50.47 170.20 55.28 C 159.51 76.83 148.39 98.18 137.87 119.81 C 146.33 118.92 154.56 116.64 163.00 115.57 C 161.96 117.00 160.86 118.38 159.67 119.68 C 134.23 146.91 109.00 174.34 83.52 201.53 C 81.07 204.15 78.79 206.95 76.00 209.22 C 88.98 182.72 102.29 156.34 115.67 130.02 C 107.12 130.59 98.90 133.44 90.34 133.90 C 111.66 110.08 134.00 87.18 155.59 63.58 Z" />
</g>
</svg>

<?xml version="1.0" encoding="utf-8"?>
<!-- Generator: Adobe Illustrator 26.0.3, SVG Export Plug-In . SVG Version: 6.00 Build 0)  -->
<svg version="1.1" id="Layer_1" xmlns="http://www.w3.org/2000/svg" xmlns:xlink="http://www.w3.org/1999/xlink" x="0px" y="0px"
	 viewBox="0 0 250 250" style="enable-background:new 0 0 250 250;" xml:space="preserve">
<style type="text/css">
	.st0{fill:#FFFFFF;}
	.st1{fill:#F6CB00;}
</style>
<g id="_x23_ffffffff">
	<path class="st0" d="M128.8,51.3c6-0.2,12-0.1,18,0c-0.2,4.6-1.2,9.1-1.6,13.7c-0.3,2.4-0.4,5.1-2.4,6.9
		c-8.2,8.4-15.9,17.3-24.2,25.7c-6.4,0-13.5-0.8-19,3.2c-2.5,1.9-2.4,5.1-2.2,7.9c2.2,1.8,4.9,2.9,7.5,3.9
		c-6.1,6.2-11.7,12.9-17.9,19c-6.1-0.9-12-3.9-15.8-8.8c-5.8-8-6.6-19.2-2.4-28.1c4-10.3,13.1-18.4,23.8-21.1
		c10.6-3.6,21.9-2.2,32.9-2.4C127.5,64.8,128.1,58,128.8,51.3z"/>
	<path class="st0" d="M166.6,70.6c10.2,0,20.4,0,30.6,0c-7.7,9.3-16.3,17.8-24.2,27c-6.7,0.1-13.4,0.1-20,0
		C157.5,88.5,162.1,79.6,166.6,70.6z"/>
	<path class="st0" d="M144.1,114.4c2.7-4.4,8.3-2.2,12.6-2.7c-0.2,0.4-0.5,1.1-0.6,1.5C152,113.4,148.1,114,144.1,114.4z"/>
	<path class="st0" d="M166.6,113.2c8.6,1.3,17.2,5.6,21.9,13.2c4.7,8.4,3.4,19.2-2,27c-7.4,11.4-20.3,18-33.4,20.4
		c-7.7,1.7-15.6,0.3-23.4,1.4c-1,7.8-2.1,15.7-3.5,23.5c-6,0-11.9,0.1-17.9,0c1.1-7.3,1.5-14.8,3.3-22c8.6-9.4,17.5-18.5,26-28
		c5.7-0.1,11.7,0.8,16.9-1.9c3.4-1.5,6.1-5.9,4.1-9.4c-1.1-2.6-4.3-3.1-6.6-4.2c4.8-5.1,9.8-10.1,14.2-15.5
		C166.5,116.1,166.6,114.6,166.6,113.2z"/>
	<path class="st0" d="M76.3,149.3c2.3-2.3,5.8-1.4,8.7-1.6c5.7,0.2,11.4-0.6,17,0.9c-4.5,8.7-8.3,17.7-13.4,26
		c-11.9,0.3-23.9,0.2-35.9,0C60.7,166.2,68.3,157.6,76.3,149.3z"/>
</g>
<g id="_x23_000000ff">
	<path d="M109.6,9.9c28.2-3.9,57.8,3.1,81.2,19.3c31.3,21.3,51.5,58.7,50.1,96.8c1,43.9-26.9,86.1-66.5,104.3
		c-32.9,15.8-73.4,14.5-105.3-3.3c-25.3-13.9-45.2-37.5-54.2-65c-7.9-23.5-8-49.6-0.2-73.2C25.9,53.8,55,25,90.2,14.2
		C96.5,12.2,103,10.7,109.6,9.9 M155.6,63.6c-21.6,23.6-43.9,46.5-65.2,70.3c8.6-0.5,16.8-3.3,25.3-3.9
		C102.3,156.3,89,182.7,76,209.2c2.8-2.3,5.1-5.1,7.5-7.7c25.5-27.2,50.7-54.6,76.2-81.8c1.2-1.3,2.3-2.7,3.3-4.1
		c-8.4,1.1-16.7,3.3-25.1,4.2c10.5-21.6,21.6-43,32.3-64.5c2.3-4.8,5.1-9.4,7-14.4C169.5,48,162.9,56.2,155.6,63.6 M128.8,51.3
		c-0.7,6.7-1.3,13.4-3.3,19.9c-11,0.3-22.3-1.2-32.9,2.4c-10.7,2.8-19.8,10.8-23.8,21.1c-4.2,8.9-3.5,20.1,2.4,28.1
		c3.9,4.8,9.7,7.9,15.8,8.8c6.2-6.1,11.8-12.8,17.9-19c-2.6-1-5.2-2.1-7.5-3.9c-0.2-2.8-0.3-6.1,2.2-7.9c5.5-4,12.6-3.2,19-3.2
		c8.3-8.4,16-17.3,24.2-25.7c2-1.7,2-4.5,2.4-6.9c0.4-4.6,1.4-9.1,1.6-13.7C140.8,51.2,134.8,51.2,128.8,51.3 M166.6,70.6
		c-4.5,9-9.1,17.9-13.6,26.9c6.7,0.2,13.3,0.1,20,0c7.9-9.2,16.5-17.7,24.2-27C187.1,70.6,176.9,70.6,166.6,70.6 M144.1,114.4
		c4-0.4,7.9-0.9,11.9-1.2c0.2-0.4,0.5-1.1,0.6-1.5C152.4,112.2,146.8,110,144.1,114.4 M166.6,113.2c0,1.5-0.1,2.9-0.3,4.4
		c-4.4,5.4-9.4,10.4-14.2,15.5c2.3,1.1,5.5,1.5,6.6,4.2c2,3.5-0.7,7.9-4.1,9.4c-5.2,2.7-11.3,1.8-16.9,1.9c-8.5,9.5-17.4,18.6-26,28
		c-1.8,7.2-2.2,14.7-3.3,22c6,0.1,11.9,0,17.9,0c1.4-7.8,2.5-15.6,3.5-23.5c7.7-1.1,15.7,0.3,23.4-1.4c13.1-2.3,26-8.9,33.4-20.4
		c5.4-7.8,6.7-18.6,2-27C183.8,118.8,175.3,114.4,166.6,113.2 M76.3,149.3c-7.9,8.4-15.6,17-23.5,25.3c11.9,0.2,23.9,0.2,35.9,0
		c5-8.3,8.9-17.4,13.4-26c-5.5-1.5-11.3-0.6-17-0.9C82.1,147.8,78.6,147,76.3,149.3z"/>
</g>
<g id="_x23_f6cb00ff">
	<path class="st1" d="M155.6,63.6c7.4-7.4,13.9-15.6,21.6-22.7c-1.9,5-4.7,9.6-7,14.4c-10.7,21.6-21.8,42.9-32.3,64.5
		c8.5-0.9,16.7-3.2,25.1-4.2c-1,1.4-2.1,2.8-3.3,4.1c-25.4,27.2-50.7,54.7-76.2,81.8c-2.4,2.6-4.7,5.4-7.5,7.7
		c13-26.5,26.3-52.9,39.7-79.2c-8.5,0.6-16.8,3.4-25.3,3.9C111.7,110.1,134,87.2,155.6,63.6z"/>
</g>
</svg>
